X:1
T:O God of hosts, the mighty Lord
T:O God of hosts, the mighty Lord (William Bennett)
C:William Bennett
Z:p12, A New Set of Psalm
Z:Tunes and Anthems,
Z:Exeter: [c1770]
%%score [ 1 2 3 4 ]
L:1/8
M:3/4
K:Emin
V:1 treble nm="Soprano" snm="S."
V:2 treble nm="Alto" snm="A."
V:3 treble-8 transpose=-12 nm="Tenor" snm="T."
V:4 bass nm="Bass" snm="B."
V:1
"^Affett[uos]o" e2 | (B>A G2) F2 | (E>F G2) F2 | (G>A B2) ^A2 | !fermata!B4 B2 | (e>d c2) e2 | %6
w: O|Lord _ _ of|hosts, _ _ my|king _ _ and|God, How|high- * * ly|
w: O|God _ _ of|hosts, _ _ the|migh- * * ty|Lord, How|love- * * ly|
w: My|lon- * * ging|soul _ _ faints|with _ _ de-|sire To|view _ _ thy|
 (B>A G2) F2 | E6 | B2 (BA) (GF) | (G>A B2) d2 | (ed/c/ B2) B2 | (B2 A2) e2 | (^d>e dc) B2 | %13
w: blest _ _ are|they|Who in _ thy _|tem- * * ple|al- * * * ways|dwell, _ And|there _ _ _ thy|
w: is _ _ the|place|Where thou, _ en- *|thron’d _ _ in|glo- * * * ry|shew’st _ The|bright- * * * ness|
w: blest _ _ a-|bode:|My pan- * ting _|soul _ _ and|flesh _ _ _ cry|out _ For|thee, _ _ _ the|
 (c>e dc) (BA) | G4 B2 | (B>A G>A B>c | B4) (cB) | (A2 G2) F2 | E6 |] %19
w: praise _ _ _ dis- *|play, and|there _ _ _ _ _|_ thy _|praise _ dis-|play.|
w: of _ _ _ thy _|face, the|bright- * * * * *|* ness _|of _ thy|face.|
w: li- * * * ving _|God, for|thee, _ _ _ _ _|_ the _|li- * ving|God.|
V:2
 E2 | (F>E ^D2) F2 | (G>F E2) ^D2 | (E>F G2) E2 | (E2 !fermata!^D2) E2 | E4 (EF) | (G>F E2) D2 | %7
w: O|Lord _ _ of|hosts, _ _ my|king _ _ and|God, _ How|high- ly _|blest _ _ are|
w: O|God _ _ of|hosts, _ _ the|migh- * * ty|Lord, _ How|love- ly _|is _ _ the|
w: My|lon- * * ging|soul _ _ faints|with _ _ de-|sire _ To|view thy _|blest _ _ a-|
 E6 | E2 (GF) (ED) | (E>F G2) F2 | (E3 F) G2 | (G2 F2) z2 | z6 | z6 | z4 F2 | (G6- | G2 F2) E2 | %17
w: they|Who in _ thy _|tem- * * ple|al- * ways|dwell, _|||And|there|_ _ thy|
w: place|Where thou, _ en- *|thron’d _ _ in|glo- * ry|shew’st _|||The|bright-|* * ness|
w: bode:|My pan- * ting _|soul _ _ and|flesh _ cry|out _|||For|thee,|_ _ the|
 (F2 E2) ^D2 | E6 |] %19
w: praise _ dis-|play.|
w: of _ thy|face.|
w: li- * ving|God.|
V:3
 E2 | B4 ^d2 | (e2 B2) A2 | (G>F E2) G2 | (G2 !fermata!F2) B2 | (c>d e2) c2 | B4 B2 | B6 | %8
w: O|Lord of|hosts, _ my|king _ _ and|God, _ How|high- * * ly|blest are|they|
w: O|God of|hosts, _ the|migh- * * ty|Lord, _ How|love- * * ly|is the|place|
w: My|lon- ging|soul _ faints|with _ _ de-|sire _ To|view _ _ thy|blest a-|bode:|
 G2 (GA) (Bc) | (B>A G2) A2 | (B>c d2) e2 | d4 z2 | z6 | z6 | z4 d2 | (e6- | e2 ^d2) e2 | c2 B4 | %18
w: Who in _ thy _|tem- * * ple|al- * * ways|dwell,|||And|there|_ _ thy|praise dis-|
w: Where thou, _ en- *|thron’d _ _ in|glo- * * ry|shew’st|||The|bright-|* * ness|of thy|
w: My pan- * ting _|soul _ _ and|flesh _ _ cry|out|||For|thee,|_ _ the|li- ving|
 B6 |] %19
w: play.|
w: face.|
w: God.|
V:4
 E,2 | (D,>C, B,,2) B,2 | E,4 B,,2 | E,2 C,4 | !fermata!B,,4 G,2 | (A,>B, C2) A,2 | B,4 B,,2 | %7
w: O|Lord _ _ of|hosts, my|king and|God, How|high- * * ly|blest are|
w: O|God _ _ of|hosts, the|migh- ty|Lord, How|love- * * ly|is the|
w: My|lon- * * ging|soul faints|with de-|sire To|view _ _ thy|blest a-|
 E,6 | G,2 D,2 B,,2 | E,4 F,2 | (G,>A, B,2) G,2 | D,4 E,2 | (B,>C B,A,) G,2 | %13
w: they|Who in thy|tem- ple|al- * * ways|dwell, And|there _ _ _ thy|
w: place|Where thou, en-|thron’d in|glo- * * ry|shew’st The|bright- * * * ness|
w: bode:|My pan- ting|soul and|flesh _ _ cry|out For|thee, _ _ _ the|
"^Notes:The parts are printed in the order Soprano - Alto - Tenor - Bass in A New Set of Psalm Tunes and Anthems.The soprano, alto and tenor parts are printed in the treble clef, with the alto and tenor parts an octave abovesounding pitch.The soprano part is identifiable as the topmost stave because of the use of a distinctive 'G' clef, commentedon by Bennett in a preface, ‘The common Theory of Music made easy, in a DIALOGUE between MASTERand SCHOLAR’, which forms pages [I] - IV of A New Set of Psalm Tunes and Anthems:‘[A]s the G Cliff is by far the easiest for young Beginners, I have set all the three upper Parts in that Cliff, onlyfor Distinction I have set Gs to the Treble, and the modern G Cliff Signature to the two inner Parts, as theyare sung an Octave below.’The first verse of the text is underlaid under the alto part in the source, and has been added to the other threeparts editorially, on the basis of the slurring (which is given in the source). The three subsequent verses givenhere are printed after the music for this tune in the source, numbered 2, 4 and 5, and have here been underlaideditorially.Spelling, capitalisation and punctuation of the text have been modernised. The word on beats 1-2 of bar 11 inverse 1, given here as ‘shew’st’, is given in the source as ‘shews’." (A,2 F,2) D,2 | %14
w: praise _ dis-|
w: of _ thy|
w: li- * ving|
 G,4 B,2 | (G,>F, E,>F, G,>A, | B,4) E,2 | [A,,A,]2 [B,,B,]4 | [E,,E,]6 |] %19
w: play, and|there _ _ _ _ _|_ thy|praise dis-|play.|
w: face, the|bright- * * * * *|* ness|of thy|face.|
w: God, for|thee, _ _ _ _ _|_ the|li- ving|God.|

